brandFactory_export/3.Masa/Status grafica _3Masa.svg

<?xml version="1.0" encoding="UTF-8"?>
<svg width="24px" height="24px" viewBox="0 0 24 24" version="1.1" xmlns="http://www.w3.org/2000/svg" xmlns:xlink="http://www.w3.org/1999/xlink">
    <title>3.Masa/Status grafica _3Masa</title>
    <g id="Symbols" stroke="none" stroke-width="1" fill="none" fill-rule="evenodd">
        <g id="3.Masa/Status-grafica-_3Masa" fill="#5CB615" fill-rule="nonzero">
            <path d="M21.3310924,3.02689076 C20.0470588,3.02689076 19.005042,4.06554622 19.0016807,5.34957983 C19.0016807,5.91092437 19.210084,6.42184874 19.5462185,6.82184874 L16.6756303,11.6218487 C16.497479,11.5781513 16.3193277,11.5546218 16.1378151,11.5546218 C15.4621849,11.5546218 14.8571429,11.8504202 14.4336134,12.3109244 L9.4789916,10.1394958 C9.48235294,10.0756303 9.49915966,10.0151261 9.49915966,9.94789916 C9.49915966,8.66722689 8.45714286,7.62521008 7.1697479,7.62521008 C5.88571429,7.62521008 4.84369748,8.66386555 4.84033613,9.94789916 C4.84033613,10.5193277 5.06554622,11.0571429 5.43529412,11.4773109 L2.78991597,16.1462185 C2.6487395,16.1193277 2.50420168,16.102521 2.35966387,16.102521 C1.07563025,16.102521 0.0336134454,17.1411765 0.0302521008,18.4252101 C0.0336134454,19.7058824 1.07563025,20.7478992 2.36302521,20.7478992 C3.64705882,20.7478992 4.68907563,19.7092437 4.69243697,18.4252101 C4.69243697,17.8336134 4.46386555,17.302521 4.09747899,16.892437 L6.74957983,12.2168067 C6.88739496,12.2436975 7.02857143,12.2705882 7.1697479,12.2705882 C7.84537815,12.2705882 8.45042017,11.9747899 8.87731092,11.5142857 L13.8285714,13.6823529 C13.8252101,13.7462185 13.8084034,13.8067227 13.8084034,13.8739496 C13.8084034,15.1579832 14.8504202,16.2033613 16.1344538,16.2033613 C17.4184874,16.2033613 18.4638655,15.1613445 18.4638655,13.8773109 L18.4638655,13.8739496 C18.4638655,13.3260504 18.2655462,12.8285714 17.9462185,12.4319328 L20.8235294,7.61512605 C20.9848739,7.65210084 21.1529412,7.67563025 21.3277311,7.67563025 C22.6117647,7.67563025 23.6504202,6.63697479 23.6537896,5.35294118 C23.6571429,4.06890756 22.6151261,3.02689076 21.3310924,3.02689076" id="Path"></path>
        </g>
    </g>
</svg>

<svg width="24" height="24" viewBox="0 0 24 24" xmlns="http://www.w3.org/2000/svg"><path d="M21.331 3.027a2.329 2.329 0 00-2.33 2.323c0 .56.21 1.072.545 1.472l-2.87 4.8a2.245 2.245 0 00-.538-.067c-.676 0-1.28.295-1.704.756l-4.955-2.172c.003-.063.02-.124.02-.191a2.327 2.327 0 00-2.33-2.323A2.329 2.329 0 004.84 9.948c0 .571.226 1.11.595 1.53L2.79 16.145a2.306 2.306 0 00-.43-.043 2.329 2.329 0 00-2.33 2.322 2.332 2.332 0 004.662 0c0-.591-.228-1.122-.595-1.533l2.653-4.675c.137.027.279.054.42.054.675 0 1.28-.296 1.707-.757l4.952 2.168c-.004.064-.02.125-.02.192a2.33 2.33 0 002.325 2.33 2.33 2.33 0 002.33-2.327v-.003a2.29 2.29 0 00-.518-1.442l2.878-4.817c.16.037.329.06.504.06a2.326 2.326 0 002.326-2.322 2.322 2.322 0 00-2.323-2.326" fill="#5CB615" fill-rule="nonzero"/></svg>
